X:1
T:Title
%%score ( 1 2 3 ) ( 4 5 6 )
L:1/8
M:4/2
K:D
V:1 treble nm="Choir Aahs, Staff"
V:2 treble 
V:3 treble 
V:4 bass nm="Choir Aahs, Staff-1"
V:5 bass 
V:6 bass 
V:1
 [A,F]4 [A,E]2 [B,D]2 C4 [B,D]4 | [DE]4 F2 G2 [DF]6 E2 | [DF]4 [D^G]4 [CA]4 A2- [EA]2 | %3
w: By~Robert~King,~1722 * * * *|||
 A6 ^G2 [EA]8 | [Dd]4 [Dd]2 [Dc]2 [DB]4 [GB]4 | [Gc]6 [Fd]2 [F^A]8 | %6
w: |||
 [FB]4 [FB]2 [EA]2 [DG]4 [CF]4 | E8 z8 | z4 [DB]4 [E^G]4 [B,E]4 | A2- [DA]2 [Cc]4 [FB]4 c2 d2 | %10
w: ||||
 [Ec]12 [Dd]4 | [DB]4 [EG]4 E4 F2 G2 | E4- [CE]2 D2 D8 |] %13
w: |||
V:2
 x16 | z4 C4 z8 | z8 z4 .D4 | F4 E4 z8 | x16 | x16 | x16 | B,4 z2 F2 [CF]8 | x16 | .E4 z4 z4 E4 | %10
 x16 | z8 z4 D4 | D4 z4 z8 |] %13
V:3
 x16 | x16 | x16 | x16 | x16 | x16 | x16 | z4 B,4 z8 | x16 | x16 | x16 | x16 | x16 |] %13
V:4
 D,4 [C,E,]2 [B,,^G,]2 A,2 =G,2 [B,,F,]4 | [G,,B,]4 [A,,A,]4 [D,A,]6 [C,A,]2 | %2
 A,2- [C,A,]2 [B,,B,]4 A,2- [E,A,]2 [D,B,]2 [C,C]2 | [B,,D]4 [E,B,]4 [A,,C]8 | %4
 [F,A,]4 [F,A,]2 [F,A,]2 [G,B,]4 D2- [F,D]2 | E8 z8 | [D,F,]4 [D,F,]2 [C,A,]2 [B,,B,]4 [A,,F,]4 | %7
 [G,,B,]4 [G,B,]4 [F,^A,]8 | z4 [B,,B,]4 [E,B,]4 [D,^G,]4 | [C,A,]4 [A,,A,]4 [D,A,]4 [E,^G,]4 | %10
 [A,,A,]12 [F,A,]4 | [G,B,]4 [E,B,]4 [C,A,]4 [D,A,]2 [G,,B,]2 | [A,,A,]4 [A,,G,]4 [D,F,]8 |] %13
V:5
 z8 A,,4 z4 | x16 | .D,4 z4 .F,4 z4 | x16 | z8 z4 .G,4 | E,4 z2 D2 [F,C]8 | x16 | x16 | x16 | x16 | %10
 x16 | x16 | x16 |] %13
V:6
 x16 | x16 | x16 | x16 | x16 | z4 B,,4 z8 | x16 | x16 | x16 | x16 | x16 | x16 | x16 |] %13

